!!!OTL: Die Rabenmutter Es wollt' ein Halter frueh austreiben,
!!!ARE: Europa, Osteuropa, Ungarn
!!!YOR: 5, S. 271
!!    1957 aufgezeichnet
!!!SCT: Q0114Y
!!!YEM: Copyright 1995, estate of Helmut Schaffrath.
**kern
*ICvox
*Ivox
*M3/4
*k[f#]
*G:
{8d
8B
8d
=1
4.g
8d
8B
8d
=2
4e
8d}
{8b
8b
8b
=3
4.a
8g
8f#
8e
=4
4e
8d}
{8d
8d
8g
=5
4.b
16a
16b
8cc
8b
=6
4a
8r}
{8g
8f#
16e
16e
=7
4.d
8d
8e
8f#
=8
4g
8r}
==
!!!AGN: Ballade, Kinds - Mord, Strafe
!! Transkription einer Tonaufnahme. Verzierung (Nachschlag) .
!!!ONB: ESAC (Essen Associative Code) Database: BALLADE
!!!AMT: simple triple
!!!AIN: vox
!!!EED: Helmut Schaffrath
!!!EEV: 1.0
*-
